public/locktwo.svg

<svg width="110" height="112" viewBox="0 0 110 112" fill="none" xmlns="http://www.w3.org/2000/svg">
<path d="M54.9882 9.33301C41.3268 9.33301 32.4706 18.755 21.9975 22.1897C17.7374 23.5897 15.6074 24.285 14.7445 25.2697C13.8816 26.2497 13.6318 27.6917 13.1276 30.5663C7.72305 61.3477 19.5314 89.805 47.6897 100.884C50.7099 102.074 52.2223 102.666 55.0018 102.666C57.7813 102.666 59.2982 102.069 62.323 100.879C90.4768 89.805 102.271 61.3477 96.8669 30.5663C96.3628 27.6917 96.1084 26.2497 95.2455 25.265C94.3826 24.2803 92.2571 23.585 87.997 22.1897C77.5194 18.755 68.6495 9.33301 54.9882 9.33301Z" stroke="#265597" stroke-width="6" stroke-linecap="round" stroke-linejoin="round"/>
<path d="M47.0501 46.4752C47.0501 46.1952 47.0864 44.5805 47.0955 42.5552C47.0955 40.6979 46.9411 38.9152 47.804 37.2819C51.0286 30.6832 60.2936 31.3552 62.5826 38.0752C62.9777 39.1812 63.005 40.9312 62.9914 42.5552C62.9777 44.6225 63.0186 46.4752 63.0186 46.4752M47.4452 48.4399C42.5402 48.4399 40.0877 52.0799 39.5427 54.3199C38.9977 56.5599 38.9977 64.6799 39.3247 68.0399C40.4147 72.2399 43.1397 73.9759 45.8102 74.5359C48.2627 74.7599 58.6177 74.6759 61.6152 74.6759C65.9752 74.7599 69.2452 73.0799 70.6077 68.0399C70.8802 66.3599 71.1527 57.1199 70.4715 54.3199C69.0272 49.8399 65.4302 48.4399 62.7052 48.4399H47.4452Z" stroke="#265597" stroke-width="6" stroke-linecap="round" stroke-linejoin="round"/>
</svg>

<svg xmlns="http://www.w3.org/2000/svg" width="110" height="112" fill="none" viewBox="0 0 110 112"><path stroke="#265597" stroke-linecap="round" stroke-linejoin="round" stroke-width="6" d="M54.988 9.333c-13.661 0-22.517 9.422-32.99 12.857-4.26 1.4-6.39 2.095-7.254 3.08-.862.98-1.112 2.422-1.616 5.296-5.405 30.782 6.403 59.239 34.562 70.318 3.02 1.19 4.532 1.782 7.312 1.782s4.296-.597 7.321-1.787c28.154-11.074 39.948-39.531 34.544-70.313-.504-2.874-.759-4.316-1.621-5.301-.863-.985-2.989-1.68-7.249-3.075C77.519 18.755 68.65 9.333 54.988 9.333"/><path stroke="#265597" stroke-linecap="round" stroke-linejoin="round" stroke-width="6" d="M47.05 46.475c0-.28.036-1.895.046-3.92 0-1.857-.155-3.64.708-5.273 3.225-6.599 12.49-5.927 14.779.793.395 1.106.422 2.856.408 4.48-.013 2.068.028 3.92.028 3.92M47.445 48.44c-4.905 0-7.357 3.64-7.902 5.88s-.545 10.36-.218 13.72c1.09 4.2 3.815 5.936 6.485 6.496 2.453.224 12.808.14 15.805.14 4.36.084 7.63-1.596 8.993-6.636.272-1.68.545-10.92-.136-13.72-1.445-4.48-5.042-5.88-7.767-5.88z"/></svg>
